app/images/nozzle-light.svg

<svg height="171" viewBox="0 0 697 171" width="697" xmlns="http://www.w3.org/2000/svg"><g fill="none" fill-rule="evenodd"><g fill="#fffffe" transform="translate(14.4157 12.6055)"><path d="m124.019534 66.5713416v-51.9795627l-37.1114514 34.4292017zm-117.65423394 13.9656755v51.9860509l37.11469554-34.4356899zm117.65423394-6.8449652v58.8245281l-117.65423394-59.1035172v-58.8212839zm-42.4158682-28.427692 48.7844122-45.2643599v142.839177l-81.6036657-40.98869-48.7844123 45.261116v-142.84242091z"/><g transform="translate(173.5843 14.3945)"><path d="m53.8598717 96.0067193h-4.3921809v-37.5035252c0-9.2250051-1.2918179-15.9713289-3.8808363-20.2389715-2.5836358-4.2676425-6.7174532-6.4068522-12.3960694-6.4068522-3.100363 0-6.1361351.565786-9.1126989 1.686581-2.9657986 1.120795-5.7270594 2.672665-8.2622521 4.65561-2.5459578 1.982945-4.7797263 4.31075-6.71745314 6.9834151-1.94310944 2.672665-3.34257885 5.603975-4.2037908 8.79393v42.0298128h-4.39218091v-67.2530889h4.13919991v16.8119251c1.37793911-2.6672766 3.11651072-5.1028503 5.23186255-7.3013329 2.10458669-2.1984825 4.45138919-4.0736587 7.03502509-5.6255287 2.5890184-1.5518701 5.3233663-2.7588801 8.2084263-3.6210301s5.8293284-1.293225 8.8435702-1.293225c7.0673205 0 12.1430884 2.5217888 15.2434514 7.5653663 3.100363 5.0435776 4.655927 12.6089439 4.655927 22.696099z"/><path d="m73.7538676 62.7708366c0 4.1329316.7266476 8.0611026 2.1960905 11.7629591 1.4640603 3.7126335 3.4394652 6.9403076 5.9423624 9.7045761 2.4921321 2.75888 5.441783 4.9358087 8.8435702 6.5307863 3.4017871 1.5949775 6.997347 2.3924662 10.7920623 2.3924662 3.78395 0 7.37951-.8190425 10.786679-2.4625159 3.396405-1.6326966 6.372969-3.8311791 8.908161-6.5900591 2.540576-2.7588801 4.569806-6.0134963 6.071545-9.7638489 1.501738-3.7503525 2.260681-7.6946888 2.260681-11.8330088 0-4.1437085-.758943-8.0826563-2.260681-11.8330089-1.501739-3.7557409-3.530969-7.0049688-6.071545-9.7638488-2.535192-2.7642684-5.490226-4.9573625-8.84357-6.5954475-3.358726-1.638085-6.938138-2.462516-10.727471-2.462516-3.7893325 0-7.3633621.824431-10.7220887 2.462516-3.3587265 1.638085-6.3083774 3.8581212-8.8489527 6.6601088-2.5405752 2.8019875-4.5644233 6.0781575-6.0661616 9.82851-1.5125035 3.7449641-2.2606814 7.7377964-2.2606814 11.9623314zm27.8978844 34.5291078c-4.5590407 0-8.8058921-.9268113-12.7244064-2.7858223-3.9131318-1.848234-7.3418318-4.348469-10.2645699-7.4953166-2.9335032-3.1468475-5.2157148-6.8325388-6.8466349-11.0570738-1.6363027-4.224535-2.4598366-8.6646076-2.4598366-13.325606 0-4.7364366.8450642-9.2196167 2.5190449-13.4495402 1.6793633-4.2191465 3.9831052-7.9263916 6.9112258-11.1163466 2.9281207-3.189955 6.3514381-5.7117438 10.275335-7.5653663 3.9131318-1.8536225 8.11154-2.7804338 12.5898421-2.7804338 4.478302 0 8.698241.9268113 12.659816 2.7804338s7.411805 4.3754113 10.334543 7.5653663c2.928121 3.189955 5.237245 6.8972001 6.916608 11.1163466 1.679364 4.2299235 2.513663 8.7131036 2.513663 13.4495402 0 4.6609984-.834299 9.101071-2.513663 13.325606-1.679363 4.224535-3.988487 7.9102263-6.916608 11.0570738-2.922738 3.1468476-6.372968 5.6470826-10.334543 7.4953166-3.961575 1.859011-8.181514 2.7858223-12.659816 2.7858223z"/><path d="m141.827289 92.3856893 49.482009-59.8763179h-48.701535v-3.755741h53.868807v3.6264185l-49.347445 59.8763179h48.954517v3.7503525h-54.256353z"/><path d="m204.356659 92.3856893 49.476626-59.8763179h-48.701535v-3.755741h53.868807v3.6264185l-49.347445 59.8763179h48.959899v3.7503525h-54.256352z"/><path d="m273.985645 1.60129362h4.262999v82.89572318c0 2.500235.77509 4.48318 2.325272 5.948835 1.550181 1.465655 3.57403 2.1984825 6.071544 2.1984825.947333 0 2.083057-.1077687 3.423318-.3233062 1.329496-.2155375 2.562105-.5388438 3.681681-.9699188l1.033454 3.6156416c-1.291818.4364634-2.90659.8244309-4.844317 1.1692909-1.937727.3448601-3.59556.5172901-4.973499.5172901-3.272606 0-5.920832-1.0184147-7.94468-3.0444673-2.023848-2.020664-3.035772-4.7579903-3.035772-8.2065903z"/><path d="m359.762354 60.5723541c-.258363-4.2245351-1.162636-8.1042101-2.712817-11.6444136-1.550182-3.5294265-3.59556-6.5900591-6.136136-9.1818975-2.540575-2.5810616-5.447165-4.5855604-8.71977-6.0081079-3.272606-1.4225475-6.803575-2.1338213-10.592907-2.1338213-3.789333 0-7.320302.7328276-10.592907 2.1984826-3.272606 1.465655-6.157666 3.4863191-8.65518 6.0781575-2.497515 2.58645-4.499833 5.6470826-6.006954 9.1818976s-2.389863 7.3713825-2.642844 11.5097026zm-27.774085 36.7275903c-4.564423 0-8.827422-.9268113-12.788997-2.7858223-3.961575-1.848234-7.422571-4.3915765-10.399135-7.6300275-2.971181-3.2276741-5.296453-6.9780266-6.975816-11.2510576-1.679364-4.2622541-2.519045-8.8100954-2.519045-13.6381354 0-4.7418251.818151-9.1818976 2.454454-13.3202176 1.636302-4.1383201 3.918514-7.7593501 6.846635-10.8630901 2.92812-3.10374 6.329908-5.5608675 10.205361-7.3713826 3.875454-1.810515 8.095393-2.7157725 12.659816-2.7157725s8.827422.9052575 12.788997 2.7157725c3.961575 1.8105151 7.406423 4.2891963 10.334544 7.4360438 2.92812 3.1468476 5.253392 6.8325388 6.981199 11.0516854 1.717041 4.2299235 2.578253 8.7131035 2.578253 13.4549286 0 .17243-.02153.51729-.064591 1.03458-.04306.51729-.064591.8190425-.064591.9052575h-60.198715c.258364 4.13832 1.205697 7.9964413 2.842 11.5689754 1.636303 3.583311 3.724742 6.6654972 6.265317 9.2519473 2.540575 2.58645 5.447165 4.6340562 8.725153 6.1428188 3.267223 1.5087625 6.755131 2.2631437 10.458343 2.2631437 2.497514 0 4.930438-.3233062 7.298771-.9699187s4.585954-1.5734238 6.652862-2.7804338c2.066909-1.20701 3.875454-2.6511113 5.425636-4.3323038 1.555564-1.6811925 2.798938-3.5132613 3.746271-5.4962063l4.004636 1.03458c-.947333 2.327805-2.346803 4.5101223-4.198408 6.5307863-1.851606 2.0206641-3.988488 3.7503526-6.394499 5.1729001-2.411393 1.4225475-5.03809 2.5433425-7.880089 3.362385-2.842.8190425-5.77012 1.2285638-8.784362 1.2285638z"/></g></g><text fill="#fff" font-family="Raleway-Thin_Medium, Raleway" font-size="127.169998" font-weight="400"><tspan x="553" y="127">.</tspan> <tspan font-family="Raleway-Thin_ExtraLight, Raleway" font-weight="300" x="578.68834" y="127">io</tspan></text></g></svg>

<?xml version="1.0" encoding="UTF-8"?>
<svg width="697px" height="171px" viewBox="0 0 697 171" version="1.1" xmlns="http://www.w3.org/2000/svg" xmlns:xlink="http://www.w3.org/1999/xlink">
    <title>logo</title>
    <g id="Page-1" stroke="none" stroke-width="1" fill="none" fill-rule="evenodd">
        <g id="Nozzle-Logo" transform="translate(14.4157, 12.6055)" fill="#FFFFFE">
            <path d="M124.019534,66.5713416 L124.019534,14.5917789 L86.9080826,49.0209806 L124.019534,66.5713416 L124.019534,66.5713416 Z M6.36530006,80.5370171 L6.36530006,132.523068 L43.4799956,98.0873781 L6.36530006,80.5370171 L6.36530006,80.5370171 Z M124.019534,73.6920519 L124.019534,132.51658 L6.36530006,73.4130628 L6.36530006,14.5917789 L124.019534,73.6920519 L124.019534,73.6920519 Z M81.6036658,45.2643599 L130.388078,0 L130.388078,142.839177 L48.7844123,101.850487 L0,147.111603 L0,4.26918209 L81.6036658,45.2643599 L81.6036658,45.2643599 Z" id="Fill-3"></path>
            <g id="Group" transform="translate(173.5843, 14.3945)">
                <path d="M53.8598717,96.0067193 L49.4676908,96.0067193 L49.4676908,58.5031941 C49.4676908,49.278189 48.1758729,42.5318652 45.5868545,38.2642226 C43.0032187,33.9965801 38.8694013,31.8573704 33.1907851,31.8573704 C30.0904221,31.8573704 27.05465,32.4231564 24.0780862,33.5439514 C21.1122876,34.6647464 18.3510268,36.2166164 15.8158341,38.1995614 C13.2698763,40.1825064 11.0361078,42.5103114 9.09838096,45.1829765 C7.15527152,47.8556415 5.75580211,50.7869515 4.89459016,53.9769065 L4.89459016,96.0067193 L0.502409251,96.0067193 L0.502409251,28.7536304 L4.64160916,28.7536304 L4.64160916,45.5655555 C6.01954827,42.8982789 7.75811988,40.4627052 9.87347171,38.2642226 C11.9780584,36.0657401 14.3248609,34.1905639 16.9084968,32.6386939 C19.4975152,31.0868238 22.2318631,29.8798138 25.1169231,29.0176638 C28.0019831,28.1555138 30.9462515,27.7244388 33.9604933,27.7244388 C41.0278138,27.7244388 46.1035817,30.2462276 49.2039447,35.2898051 C52.3043077,40.3333827 53.8598717,47.898749 53.8598717,57.9859041 L53.8598717,96.0067193" id="Fill-4"></path>
                <path d="M73.7538676,62.7708366 C73.7538676,66.9037682 74.4805152,70.8319392 75.9499581,74.5337957 C77.4140184,78.2464292 79.3894233,81.4741033 81.8923205,84.2383718 C84.3844526,86.9972518 87.3341035,89.1741805 90.7358907,90.7691581 C94.1376778,92.3641356 97.7332377,93.1616243 101.527953,93.1616243 C105.311903,93.1616243 108.907463,92.3425818 112.314632,90.6991084 C115.711037,89.0664118 118.687601,86.8679293 121.222793,84.1090493 C123.763369,81.3501692 125.792599,78.095553 127.294338,74.3452004 C128.796076,70.5948479 129.555019,66.6505116 129.555019,62.5121916 C129.555019,58.3684831 128.796076,54.4295353 127.294338,50.6791827 C125.792599,46.9234418 123.763369,43.6742139 121.222793,40.9153339 C118.687601,38.1510655 115.732567,35.9579714 112.379223,34.3198864 C109.020497,32.6818014 105.441085,31.8573704 101.651752,31.8573704 C97.8624195,31.8573704 94.2883899,32.6818014 90.9296633,34.3198864 C87.5709368,35.9579714 84.6212859,38.1780076 82.0807106,40.9799952 C79.5401354,43.7819827 77.5162873,47.0581527 76.014549,50.8085052 C74.5020455,54.5534693 73.7538676,58.5463016 73.7538676,62.7708366 L73.7538676,62.7708366 Z M101.651752,97.2999444 C97.0927113,97.2999444 92.8458599,96.3731331 88.9273456,94.5141221 C85.0142138,92.6658881 81.5855138,90.1656531 78.6627757,87.0188055 C75.7292725,83.871958 73.4470609,80.1862667 71.8161408,75.9617317 C70.1798381,71.7371967 69.3563042,67.2971241 69.3563042,62.6361257 C69.3563042,57.8996891 70.2013684,53.416509 71.8753491,49.1865855 C73.5547124,44.967439 75.8584543,41.2601939 78.7865749,38.0702389 C81.7146956,34.8802839 85.138013,32.3584951 89.0619099,30.5048726 C92.9750417,28.6512501 97.1734499,27.7244388 101.651752,27.7244388 C106.130054,27.7244388 110.349993,28.6512501 114.311568,30.5048726 C118.273143,32.3584951 121.723373,34.8802839 124.646111,38.0702389 C127.574232,41.2601939 129.883356,44.967439 131.562719,49.1865855 C133.242083,53.416509 134.076382,57.8996891 134.076382,62.6361257 C134.076382,67.2971241 133.242083,71.7371967 131.562719,75.9617317 C129.883356,80.1862667 127.574232,83.871958 124.646111,87.0188055 C121.723373,90.1656531 118.273143,92.6658881 114.311568,94.5141221 C110.349993,96.3731331 106.130054,97.2999444 101.651752,97.2999444 L101.651752,97.2999444 Z" id="Fill-5"></path>
                <polyline id="Fill-6" points="141.827289 92.3856893 191.309298 32.5093714 142.607763 32.5093714 142.607763 28.7536304 196.47657 28.7536304 196.47657 32.3800489 147.129125 92.2563668 196.083642 92.2563668 196.083642 96.0067193 141.827289 96.0067193 141.827289 92.3856893"></polyline>
                <polyline id="Fill-7" points="204.356659 92.3856893 253.833285 32.5093714 205.13175 32.5093714 205.13175 28.7536304 259.000557 28.7536304 259.000557 32.3800489 209.653112 92.2563668 258.613011 92.2563668 258.613011 96.0067193 204.356659 96.0067193 204.356659 92.3856893"></polyline>
                <path d="M273.985645,1.60129362 L278.248644,1.60129362 L278.248644,84.4970168 C278.248644,86.9972518 279.023734,88.9801968 280.573916,90.4458518 C282.124097,91.9115068 284.147946,92.6443343 286.64546,92.6443343 C287.592793,92.6443343 288.728517,92.5365656 290.068778,92.3210281 C291.398274,92.1054906 292.630883,91.7821843 293.750459,91.3511093 L294.783913,94.9667509 C293.492095,95.4032143 291.877323,95.7911818 289.939596,96.1360418 C288.001869,96.4809019 286.344036,96.6533319 284.966097,96.6533319 C281.693491,96.6533319 279.045265,95.6349172 277.021417,93.6088646 C274.997569,91.5882006 273.985645,88.8508743 273.985645,85.4022743 L273.985645,1.60129362" id="Fill-8"></path>
                <path d="M359.762354,60.5723541 C359.503991,56.347819 358.599718,52.468144 357.049537,48.9279405 C355.499355,45.398514 353.453977,42.3378814 350.913401,39.746043 C348.372826,37.1649814 345.466236,35.1604826 342.193631,33.7379351 C338.921025,32.3153876 335.390056,31.6041138 331.600724,31.6041138 C327.811391,31.6041138 324.280422,32.3369414 321.007817,33.8025964 C317.735211,35.2682514 314.850151,37.2889155 312.352637,39.8807539 C309.855122,42.4672039 307.852804,45.5278365 306.345683,49.0626515 C304.838562,52.5974665 303.95582,56.434034 303.702839,60.5723541 L359.762354,60.5723541 L359.762354,60.5723541 Z M331.988269,97.2999444 C327.423846,97.2999444 323.160847,96.3731331 319.199272,94.5141221 C315.237697,92.6658881 311.776701,90.1225456 308.800137,86.8840946 C305.828956,83.6564205 303.503684,79.906068 301.824321,75.633037 C300.144957,71.3707829 299.305276,66.8229416 299.305276,61.9949016 C299.305276,57.2530765 300.123427,52.813004 301.75973,48.674684 C303.396032,44.5363639 305.678244,40.9153339 308.606365,37.8115939 C311.534485,34.7078539 314.936273,32.2507264 318.811726,30.4402113 C322.68718,28.6296963 326.907119,27.7244388 331.471542,27.7244388 C336.035965,27.7244388 340.298964,28.6296963 344.260539,30.4402113 C348.222114,32.2507264 351.666962,34.7294076 354.595083,37.8762551 C357.523203,41.0231027 359.848475,44.7087939 361.576282,48.9279405 C363.293323,53.157864 364.154535,57.641044 364.154535,62.3828691 C364.154535,62.5552991 364.133005,62.9001591 364.089944,63.4174491 C364.046884,63.9347391 364.025353,64.2364916 364.025353,64.3227066 L303.826638,64.3227066 C304.085002,68.4610266 305.032335,72.3191479 306.668638,75.891682 C308.304941,79.474993 310.39338,82.5571792 312.933955,85.1436293 C315.47453,87.7300793 318.38112,89.7776855 321.659108,91.2864481 C324.926331,92.7952106 328.414239,93.5495918 332.117451,93.5495918 C334.614965,93.5495918 337.047889,93.2262856 339.416222,92.5796731 C341.784555,91.9330606 344.002176,91.0062493 346.069084,89.7992393 C348.135993,88.5922293 349.944538,87.148128 351.49472,85.4669355 C353.050284,83.785743 354.293658,81.9536742 355.240991,79.9707292 L359.245627,81.0053092 C358.298294,83.3331142 356.898824,85.5154315 355.047219,87.5360955 C353.195613,89.5567596 351.058731,91.2864481 348.65272,92.7089956 C346.241327,94.1315431 343.61463,95.2523381 340.772631,96.0713806 C337.930631,96.8904231 335.002511,97.2999444 331.988269,97.2999444 L331.988269,97.2999444 Z" id="Fill-9"></path>
            </g>
        </g>
        <text id=".io" font-family="Raleway-Thin_Medium, Raleway" font-size="127.169998" font-weight="400" fill="#FFFFFF">
            <tspan x="553" y="127">.</tspan>
            <tspan x="578.68834" y="127" font-family="Raleway-Thin_ExtraLight, Raleway" font-weight="300">io</tspan>
        </text>
    </g>
</svg>
